assets/icons/bag_dark.svg

<?xml version="1.0" encoding="utf-8"?><!-- Uploaded to: SVG Repo, www.svgrepo.com, Generator: SVG Repo Mixer Tools -->
<svg width="800px" height="800px" viewBox="0 0 24 24" fill="none" xmlns="http://www.w3.org/2000/svg">
<path fill-rule="evenodd" clip-rule="evenodd" d="M6.45925 6C4.02505 6 2.1552 8.15595 2.49945 10.5657L3.51965 17.7071C3.87155 20.1704 5.98115 22 8.4694 22H15.531C18.0193 22 20.1289 20.1704 20.4808 17.7071L21.501 10.5657C21.8452 8.15595 19.9754 6 17.5412 6H6.45925Z" fill="#000000"/>
<path fill-rule="evenodd" clip-rule="evenodd" d="M7.00016 4.76363C7.84716 3.06962 9.57838 2 11.4721 2H12.5279C14.4218 2 16.1531 3.07003 17 4.76396L17.8944 6.55279C18.1414 7.04677 17.9412 7.64744 17.4472 7.89443C16.9532 8.14142 16.3526 7.94119 16.1056 7.44721L15.2112 5.65838C14.703 4.64202 13.6642 4 12.5279 4H11.4721C10.3357 4 9.29715 4.64179 8.78901 5.65805L7.89443 7.44721C7.64744 7.94119 7.04677 8.14142 6.55279 7.89443C6.05881 7.64744 5.85859 7.04676 6.10558 6.55279L7.00016 4.76363Z" fill="#000000"/>
</svg>

<svg xmlns="http://www.w3.org/2000/svg" width="800" height="800" fill="none" viewBox="0 0 24 24"><path fill="#000" fill-rule="evenodd" d="M6.46 6a4 4 0 0 0-3.96 4.566l1.02 7.141A5 5 0 0 0 8.47 22h7.061a5 5 0 0 0 4.95-4.293l1.02-7.141A4 4 0 0 0 17.541 6z" clip-rule="evenodd"/><path fill="#000" fill-rule="evenodd" d="M7 4.764A5 5 0 0 1 11.472 2h1.056A5 5 0 0 1 17 4.764l.894 1.789a1 1 0 1 1-1.788.894l-.895-1.789A3 3 0 0 0 12.528 4h-1.056A3 3 0 0 0 8.79 5.658l-.895 1.79a1 1 0 1 1-1.788-.895z" clip-rule="evenodd"/></svg>
